icons/alipay-line.svg

<svg viewBox="0 0 24 24" fill="currentColor" xmlns="http://www.w3.org/2000/svg">
    <path d="M18.4079 16.7903C16.2353 15.8398 14.6887 15.1443 13.768 14.704C12.368 16.4 10.896 17.424 8.688 17.424C6.48 17.424 5 16.064 5.176 14.392C5.296 13.296 6.048 11.504 9.304 11.816C11.024 11.976 11.808 12.296 13.216 12.76C13.576 12.096 13.88 11.36 14.104 10.584H7.88V9.968H10.952V8.864H7.2V8.184H10.952V6.592C10.952 6.592 10.984 6.344 11.264 6.344H12.8V8.192H16.8V8.872H12.8V9.976H16.064C15.768 11.2 15.312 12.32 14.744 13.296C15.2543 13.4776 16.841 13.9718 19.5043 14.7785C19.8249 13.913 20 12.977 20 12C20 7.58172 16.4183 4 12 4C7.58172 4 4 7.58172 4 12C4 16.4183 7.58172 20 12 20C14.6217 20 16.9488 18.7389 18.4079 16.7903ZM12 22C6.47715 22 2 17.5228 2 12C2 6.47715 6.47715 2 12 2C17.5228 2 22 6.47715 22 12C22 17.5228 17.5228 22 12 22ZM8.432 16.368C9.872 16.368 11.256 15.496 12.392 14.016C10.784 13.24 9.448 12.856 7.952 12.856C6.648 12.856 5.968 13.656 5.848 14.272C5.728 14.888 6.096 16.368 8.432 16.368Z"/>
</svg>

<svg xmlns="http://www.w3.org/2000/svg" viewBox="0 0 24 24">
    <g>
        <path fill="none" d="M0 0h24v24H0z"/>
        <path fill-rule="nonzero" d="M18.408 16.79c-2.173-.95-3.72-1.646-4.64-2.086-1.4 1.696-2.872 2.72-5.08 2.72S5 16.064 5.176 14.392c.12-1.096.872-2.888 4.128-2.576 1.72.16 2.504.48 3.912.944.36-.664.664-1.4.888-2.176H7.88v-.616h3.072V8.864H7.2v-.68h3.752V6.592s.032-.248.312-.248H12.8v1.848h4v.68h-4v1.104h3.264a12.41 12.41 0 0 1-1.32 3.32c.51.182 2.097.676 4.76 1.483a8 8 0 1 0-1.096 2.012zM12 22C6.477 22 2 17.523 2 12S6.477 2 12 2s10 4.477 10 10-4.477 10-10 10zm-3.568-5.632c1.44 0 2.824-.872 3.96-2.352-1.608-.776-2.944-1.16-4.44-1.16-1.304 0-1.984.8-2.104 1.416-.12.616.248 2.096 2.584 2.096z"/>
    </g>
</svg>
